src/assets/icons/thumbs-up.svg

<?xml version="1.0" encoding="UTF-8"?>
<svg width="32px" height="32px" viewBox="0 0 32 32" version="1.1" xmlns="http://www.w3.org/2000/svg" xmlns:xlink="http://www.w3.org/1999/xlink">
    <!-- Generator: Sketch 61.2 (89653) - https://sketch.com -->
    <title>Atoms/Ikoner/Ui/Thumb up</title>
    <desc>Created with Sketch.</desc>
    <g id="Atoms/Ikoner/Ui/Thumb-up" stroke="none" stroke-width="1" fill="none" fill-rule="evenodd">
        <g id="Thumb-up" fill-rule="nonzero">
            <path d="M24.33,1.98885775 C25.1229253,1.98885775 25.8802638,2.31804509 26.4049415,2.88081573 C26.9610099,3.44941602 27.2685434,4.21555203 27.2599415,5.01081573 L27.2599415,5.01081573 L27.258468,5.14704295 L25.776,10.267 L29.0521863,10.0505181 C29.9258602,10.078653 30.7402279,10.4860722 31.2863906,11.1601509 L31.2863906,11.1601509 L31.407572,11.3203898 C31.9499797,12.0897833 32.099791,13.0691611 31.8186832,13.9444757 L31.8186832,13.9444757 L27.6063615,28.14 L11.459,28.1398578 L11.46,30 L2,30 L2,11.29 L11.46,11.29 L11.459,13.6668578 L22.3784511,2.75814111 C22.8534309,2.31473402 23.4654547,2.04634017 24.1129819,1.99709548 Z M9.46,13.29 L4,13.29 L4,28 L9.46,28 L9.46,13.29 Z M24.33,3.98885775 C24.0915679,3.98885775 23.8638368,4.08784416 23.676824,4.28738945 L23.676824,4.28738945 L11.46,16.493 L11.46,26.14 L26.113,26.14 L29.9078137,13.3544819 C29.9899865,13.0983799 29.965037,12.8219463 29.8423734,12.5866865 L29.8423734,12.5866865 L29.7729423,12.4727725 C29.5921398,12.216308 29.3014403,12.0595816 29.0872388,12.0477369 L29.0872388,12.0477369 L23.0625611,12.4537478 L25.253,4.88 L25.2527397,4.85763059 C25.2313503,4.68378762 25.1635922,4.51715863 25.0513296,4.36933868 L25.0513296,4.36933868 L24.9588172,4.26218159 C24.7961632,4.08784416 24.5684321,3.98885775 24.33,3.98885775 Z" id="Combined-Shape" fill="#2A2859"></path>
        </g>
    </g>
</svg>

<svg xmlns="http://www.w3.org/2000/svg" width="32" height="32" viewBox="0 0 32 32"><g id="thumbs-up"><path id="Combined-Shape" d="M24.33,2a2.84,2.84,0,0,1,2.07.89A3,3,0,0,1,27.26,5h0v.14l-1.48,5.12,3.27-.22a3,3,0,0,1,2.24,1.11h0l.12.16a3,3,0,0,1,.41,2.62h0l-4.21,14.2H11.46V30H2V11.29h9.46v2.38L22.38,2.76A2.82,2.82,0,0,1,24.11,2ZM9.46,13.29H4V28H9.46ZM24.33,4a.86.86,0,0,0-.65.3h0L11.46,16.49v9.65H26.11l3.8-12.79a1,1,0,0,0-.07-.76h0l-.07-.12a1,1,0,0,0-.68-.42h0l-6,.4,2.19-7.57v0a1,1,0,0,0-.2-.49h0L25,4.26A.87.87,0,0,0,24.33,4Z"/></g></svg>
